X: 2
T: Hare in the Corn, The [6]
M: 6/8
L: 1/8
R: Jig
K: D Major
F2 A AFA | BdB AFE | ~F3 EDE | F2 D DED | 
F2 A AFA | B/c/dB AFA | Bcd ecA | ded d3 :|
|: ~f3 fed | g2 e ede | ~f3 fed | a^ga ba=g | 
~f3 fed | ~g2 e edB | AB/c/d ecA | ded d3 :|
